vectors/flickr/flickr-icon.svg

<svg version="1.1" xmlns="http://www.w3.org/2000/svg" xmlns:xlink="http://www.w3.org/1999/xlink" viewBox="0 0 256 256">
    <defs>
        <linearGradient id="linearGradient-1" x1="50%" x2="50%" y1="0%" y2="100%">
            <stop offset="0%" stop-color="#FFFFFF" />
            <stop offset="100%" stop-color="#F3F3F3" />
        </linearGradient>
        <linearGradient id="linearGradient-2" x1="50%" x2="50%" y1="3.29838967%" y2="100%">
            <stop offset="0%" stop-color="#DCDCDC" />
            <stop offset="100%" stop-color="#D2D2D2" />
        </linearGradient>
        <filter filterUnits="objectBoundingBox" height="200%" id="filter-3" width="200%" x="-50%" y="-50%">
            <feOffset dx="0" dy="1" in="SourceAlpha" result="shadowOffsetInner1" />
            <feGaussianBlur in="shadowOffsetInner1" result="shadowBlurInner1" stdDeviation="1.5" />
            <feComposite in="shadowBlurInner1" in2="SourceAlpha" k2="-1" k3="1" operator="arithmetic" result="shadowInnerInner1" />
            <feColorMatrix in="shadowInnerInner1" result="shadowMatrixInner1" type="matrix" values="0 0 0 0 0   0 0 0 0 0   0 0 0 0 0  0 0 0 0.248847939 0" />
            <feMerge>
                <feMergeNode in="SourceGraphic" />
                <feMergeNode in="shadowMatrixInner1" />
            </feMerge>
        </filter>
        <filter filterUnits="objectBoundingBox" height="200%" id="filter-4" width="200%" x="-50%" y="-50%">
            <feOffset dx="0" dy="1" in="SourceAlpha" result="shadowOffsetInner1" />
            <feGaussianBlur in="shadowOffsetInner1" result="shadowBlurInner1" stdDeviation="1.5" />
            <feComposite in="shadowBlurInner1" in2="SourceAlpha" k2="-1" k3="1" operator="arithmetic" result="shadowInnerInner1" />
            <feColorMatrix in="shadowInnerInner1" result="shadowMatrixInner1" type="matrix" values="0 0 0 0 0   0 0 0 0 0   0 0 0 0 0  0 0 0 0.248847939 0" />
            <feMerge>
                <feMergeNode in="SourceGraphic" />
                <feMergeNode in="shadowMatrixInner1" />
            </feMerge>
        </filter>
    </defs>
    <g fill="none" fill-rule="evenodd" stroke="none" stroke-width="1">
        <g>
            <rect fill="url(#linearGradient-1)" height="247.434627" rx="28" width="247.434627" x="4.46424697" y="4.46424697" />
            <path d="M46.7031149,8.01718949 C25.2993361,8.01718949 7.8845864,25.4319392 7.8845864,46.835718 L7.8845864,209.147365 C7.8845864,230.551143 25.2993361,247.965894 46.7031149,247.965894 L209.013395,247.965894 C230.41854,247.965894 247.831923,230.551143 247.831923,209.147365 L247.831923,46.835718 C247.831923,25.4319392 230.41854,8.01718949 209.013395,8.01718949 L46.7031149,8.01718949 L46.7031149,8.01718949 Z M209.013395,255.619962 L46.7031149,255.619962 C21.0779101,255.619962 0.23051748,234.771203 0.23051748,209.147365 L0.23051748,46.835718 C0.23051748,21.2105132 21.0779101,0.360386483 46.7031149,0.360386483 L209.013395,0.360386483 C234.639966,0.360386483 255.487359,21.2105132 255.487359,46.835718 L255.487359,209.147365 C255.487359,234.771203 234.639966,255.619962 209.013395,255.619962 L209.013395,255.619962 L209.013395,255.619962 Z" fill="url(#linearGradient-2)" />
            <path d="M116.254118,127.990175 C116.254118,147.439083 100.490755,163.201078 81.0445804,163.201078 C61.598406,163.201078 45.8350431,147.439083 45.8350431,127.990175 C45.8350431,108.545367 61.598406,92.7792701 81.0445804,92.7792701 C100.490755,92.7792701 116.254118,108.545367 116.254118,127.990175" fill="#1D66D8" filter="url(#filter-3)" />
            <path d="M209.8842,127.990175 C209.8842,147.439083 194.11947,163.201078 174.673297,163.201078 C155.225755,163.201078 139.462392,147.439083 139.462392,127.990175 C139.462392,108.545367 155.225755,92.7792701 174.673297,92.7792701 C194.11947,92.7792701 209.8842,108.545367 209.8842,127.990175" fill="#FB0A84" filter="url(#filter-4)" />
        </g>
    </g>
</svg>

<svg xmlns="http://www.w3.org/2000/svg" viewBox="0 0 256 256"><defs><linearGradient id="a" x1="50%" x2="50%" y1="0%" y2="100%"><stop offset="0%" stop-color="#FFF"/><stop offset="100%" stop-color="#F3F3F3"/></linearGradient><linearGradient id="b" x1="50%" x2="50%" y1="3.298%" y2="100%"><stop offset="0%" stop-color="#DCDCDC"/><stop offset="100%" stop-color="#D2D2D2"/></linearGradient><filter filterUnits="objectBoundingBox" height="200%" id="c" width="200%" x="-50%" y="-50%"><feOffset dy="1" in="SourceAlpha" result="shadowOffsetInner1"/><feGaussianBlur in="shadowOffsetInner1" result="shadowBlurInner1" stdDeviation="1.5"/><feComposite in="shadowBlurInner1" in2="SourceAlpha" k2="-1" k3="1" operator="arithmetic" result="shadowInnerInner1"/><feColorMatrix in="shadowInnerInner1" result="shadowMatrixInner1" values="0 0 0 0 0 0 0 0 0 0 0 0 0 0 0 0 0 0 0.248847939 0"/><feMerge><feMergeNode in="SourceGraphic"/><feMergeNode in="shadowMatrixInner1"/></feMerge></filter><filter filterUnits="objectBoundingBox" height="200%" id="d" width="200%" x="-50%" y="-50%"><feOffset dy="1" in="SourceAlpha" result="shadowOffsetInner1"/><feGaussianBlur in="shadowOffsetInner1" result="shadowBlurInner1" stdDeviation="1.5"/><feComposite in="shadowBlurInner1" in2="SourceAlpha" k2="-1" k3="1" operator="arithmetic" result="shadowInnerInner1"/><feColorMatrix in="shadowInnerInner1" result="shadowMatrixInner1" values="0 0 0 0 0 0 0 0 0 0 0 0 0 0 0 0 0 0 0.248847939 0"/><feMerge><feMergeNode in="SourceGraphic"/><feMergeNode in="shadowMatrixInner1"/></feMerge></filter></defs><g fill="none" fill-rule="evenodd"><rect fill="url(#a)" height="247.435" rx="28" width="247.435" x="4.464" y="4.464"/><path d="M46.703 8.017C25.3 8.017 7.885 25.432 7.885 46.836v162.311c0 21.404 17.414 38.819 38.818 38.819h162.31c21.406 0 38.819-17.415 38.819-38.819V46.836c0-21.404-17.413-38.819-38.819-38.819H46.703zm162.31 247.603H46.703c-25.625 0-46.472-20.849-46.472-46.473V46.836C.23 21.21 21.078.36 46.703.36h162.31c25.627 0 46.474 20.85 46.474 46.476v162.311c0 25.624-20.847 46.473-46.474 46.473z" fill="url(#b)"/><path d="M116.254 127.99c0 19.45-15.763 35.211-35.21 35.211-19.446 0-35.209-15.762-35.209-35.21 0-19.446 15.763-35.212 35.21-35.212 19.446 0 35.21 15.766 35.21 35.211" fill="#1D66D8" filter="url(#c)"/><path d="M209.884 127.99c0 19.45-15.765 35.211-35.21 35.211-19.448 0-35.212-15.762-35.212-35.21 0-19.446 15.764-35.212 35.211-35.212 19.446 0 35.211 15.766 35.211 35.211" fill="#FB0A84" filter="url(#d)"/></g></svg>
